producthuntturkey/static/images/svg/github_tr.svg

<svg width="156" height="55" viewBox="0 0 156 55" fill="none" xmlns="http://www.w3.org/2000/svg">
<path d="M149.124 1H6.8755C3.63055 1 1 5.25329 1 10.5V44.5C1 49.7467 3.63055 54 6.8755 54H149.124C152.369 54 155 49.7467 155 44.5V10.5C155 5.25329 152.369 1 149.124 1Z" fill="#FFFFFC" stroke="black"/>
<path fill-rule="evenodd" clip-rule="evenodd" d="M32 12C23.16 12 16 19.16 16 28C16 35.08 20.58 41.06 26.94 43.18C27.74 43.32 28.04 42.84 28.04 42.42C28.04 42.04 28.02 40.78 28.02 39.44C24 40.18 22.96 38.46 22.64 37.56C22.46 37.1 21.68 35.68 21 35.3C20.44 35 19.64 34.26 20.98 34.24C22.24 34.22 23.14 35.4 23.44 35.88C24.88 38.3 27.18 37.62 28.1 37.2C28.24 36.16 28.66 35.46 29.12 35.06C25.56 34.66 21.84 33.28 21.84 27.16C21.84 25.42 22.46 23.98 23.48 22.86C23.32 22.46 22.76 20.82 23.64 18.62C23.64 18.62 24.98 18.2 28.04 20.26C29.32 19.9 30.68 19.72 32.04 19.72C33.4 19.72 34.76 19.9 36.04 20.26C39.1 18.18 40.44 18.62 40.44 18.62C41.32 20.82 40.76 22.46 40.6 22.86C41.62 23.98 42.24 25.4 42.24 27.16C42.24 33.3 38.5 34.66 34.94 35.06C35.52 35.56 36.02 36.52 36.02 38.02C36.02 40.16 36 41.88 36 42.42C36 42.84 36.3 43.34 37.1 43.18C40.2762 42.1076 43.0362 40.0662 44.9916 37.3432C46.9469 34.6201 47.999 31.3524 48 28C48 19.16 40.84 12 32 12Z" fill="black"/>
<path d="M64.305 22C63.897 22 63.693 21.796 63.693 21.388V16.267C63.693 15.859 63.897 15.655 64.305 15.655H66.465C67.131 15.655 67.647 15.802 68.013 16.096C68.379 16.384 68.562 16.786 68.562 17.302C68.562 17.644 68.475 17.938 68.301 18.184C68.127 18.43 67.887 18.61 67.581 18.724C67.941 18.826 68.22 19.006 68.418 19.264C68.622 19.516 68.724 19.837 68.724 20.227C68.724 20.791 68.532 21.229 68.148 21.541C67.77 21.847 67.242 22 66.564 22H64.305ZM64.8 18.346H66.267C67.053 18.346 67.446 18.043 67.446 17.437C67.446 16.831 67.053 16.528 66.267 16.528H64.8V18.346ZM64.8 21.127H66.42C67.212 21.127 67.608 20.809 67.608 20.173C67.608 19.537 67.212 19.219 66.42 19.219H64.8V21.127ZM70.4653 22.072C70.0813 22.072 69.8893 21.874 69.8893 21.478V16.177C69.8893 15.781 70.0813 15.583 70.4653 15.583C70.8493 15.583 71.0413 15.781 71.0413 16.177V21.478C71.0413 21.874 70.8493 22.072 70.4653 22.072ZM70.4653 14.899C70.0753 14.899 69.8803 14.71 69.8803 14.332C69.8803 13.96 70.0753 13.774 70.4653 13.774C70.8553 13.774 71.0503 13.96 71.0503 14.332C71.0503 14.71 70.8553 14.899 70.4653 14.899ZM72.6903 22C72.4923 22 72.3423 21.949 72.2403 21.847C72.1443 21.739 72.1023 21.601 72.1143 21.433C72.1323 21.265 72.2073 21.091 72.3393 20.911L75.5073 16.618H72.6003C72.2583 16.618 72.0873 16.456 72.0873 16.132C72.0873 15.814 72.2583 15.655 72.6003 15.655H76.3263C76.5243 15.655 76.6713 15.709 76.7673 15.817C76.8693 15.919 76.9143 16.054 76.9023 16.222C76.8903 16.384 76.8153 16.558 76.6773 16.744L73.5093 21.037H76.5513C76.8933 21.037 77.0643 21.196 77.0643 21.514C77.0643 21.838 76.8933 22 76.5513 22H72.6903ZM78.4905 22C78.0825 22 77.8785 21.796 77.8785 21.388V16.267C77.8785 15.859 78.0825 15.655 78.4905 15.655H81.7035C82.0155 15.655 82.1715 15.805 82.1715 16.105C82.1715 16.417 82.0155 16.573 81.7035 16.573H78.9855V18.319H81.5055C81.8175 18.319 81.9735 18.472 81.9735 18.778C81.9735 19.084 81.8175 19.237 81.5055 19.237H78.9855V21.082H81.7035C82.0155 21.082 82.1715 21.235 82.1715 21.541C82.1715 21.847 82.0155 22 81.7035 22H78.4905ZM87.78 22.072C87.396 22.072 87.204 21.871 87.204 21.469V19.084L85.278 16.375C85.2 16.267 85.164 16.153 85.17 16.033C85.182 15.907 85.233 15.802 85.323 15.718C85.413 15.628 85.539 15.583 85.701 15.583C85.935 15.583 86.139 15.706 86.313 15.952L87.798 18.058L89.292 15.952C89.388 15.82 89.481 15.727 89.571 15.673C89.661 15.613 89.772 15.583 89.904 15.583C90.138 15.583 90.291 15.67 90.363 15.844C90.441 16.012 90.411 16.192 90.273 16.384L88.356 19.093V21.469C88.356 21.871 88.164 22.072 87.78 22.072ZM92.1479 22.072C91.7639 22.072 91.5719 21.874 91.5719 21.478V16.177C91.5719 15.781 91.7639 15.583 92.1479 15.583C92.5319 15.583 92.7239 15.781 92.7239 16.177V21.478C92.7239 21.874 92.5319 22.072 92.1479 22.072ZM94.6969 22C94.3069 22 94.1119 21.802 94.1119 21.406V16.213C94.1119 15.823 94.3039 15.628 94.6879 15.628C95.0719 15.628 95.2639 15.823 95.2639 16.213V21.019H97.8739C98.2099 21.019 98.3779 21.181 98.3779 21.505C98.3779 21.835 98.2099 22 97.8739 22H94.6969ZM99.7777 22C99.3697 22 99.1657 21.796 99.1657 21.388V16.267C99.1657 15.859 99.3697 15.655 99.7777 15.655H101.524C102.586 15.655 103.405 15.928 103.981 16.474C104.563 17.02 104.854 17.803 104.854 18.823C104.854 19.837 104.563 20.62 103.981 21.172C103.405 21.724 102.586 22 101.524 22H99.7777ZM100.318 21.046H101.452C102.916 21.046 103.648 20.305 103.648 18.823C103.648 17.347 102.916 16.609 101.452 16.609H100.318V21.046ZM106.597 22.072C106.213 22.072 106.021 21.874 106.021 21.478V16.177C106.021 15.781 106.213 15.583 106.597 15.583C106.981 15.583 107.173 15.781 107.173 16.177V21.478C107.173 21.874 106.981 22.072 106.597 22.072ZM108.822 22C108.624 22 108.474 21.949 108.372 21.847C108.276 21.739 108.234 21.601 108.246 21.433C108.264 21.265 108.339 21.091 108.471 20.911L111.639 16.618H108.732C108.39 16.618 108.219 16.456 108.219 16.132C108.219 15.814 108.39 15.655 108.732 15.655H112.458C112.656 15.655 112.803 15.709 112.899 15.817C113.001 15.919 113.046 16.054 113.034 16.222C113.022 16.384 112.947 16.558 112.809 16.744L109.641 21.037H112.683C113.025 21.037 113.196 21.196 113.196 21.514C113.196 21.838 113.025 22 112.683 22H108.822ZM118.974 22.072C118.668 22.072 118.449 21.922 118.317 21.622L115.968 16.348C115.872 16.12 115.875 15.937 115.977 15.799C116.085 15.655 116.241 15.583 116.445 15.583C116.619 15.583 116.748 15.622 116.832 15.7C116.922 15.772 116.997 15.883 117.057 16.033L118.992 20.524L120.927 16.024C120.993 15.88 121.071 15.772 121.161 15.7C121.251 15.622 121.377 15.583 121.539 15.583C121.731 15.583 121.875 15.655 121.971 15.799C122.073 15.943 122.073 16.126 121.971 16.348L119.622 21.622C119.556 21.772 119.472 21.886 119.37 21.964C119.274 22.036 119.142 22.072 118.974 22.072ZM123.482 22C123.074 22 122.87 21.796 122.87 21.388V16.267C122.87 15.859 123.074 15.655 123.482 15.655H126.695C127.007 15.655 127.163 15.805 127.163 16.105C127.163 16.417 127.007 16.573 126.695 16.573H123.977V18.319H126.497C126.809 18.319 126.965 18.472 126.965 18.778C126.965 19.084 126.809 19.237 126.497 19.237H123.977V21.082H126.695C127.007 21.082 127.163 21.235 127.163 21.541C127.163 21.847 127.007 22 126.695 22H123.482ZM128.816 22.072C128.432 22.072 128.24 21.874 128.24 21.478V16.24C128.24 15.85 128.435 15.655 128.825 15.655H130.994C131.69 15.655 132.227 15.823 132.605 16.159C132.983 16.489 133.172 16.954 133.172 17.554C133.172 18.028 133.049 18.421 132.803 18.733C132.557 19.039 132.203 19.246 131.741 19.354C132.047 19.45 132.299 19.681 132.497 20.047L133.172 21.298C133.274 21.49 133.292 21.667 133.226 21.829C133.166 21.991 133.013 22.072 132.767 22.072C132.605 22.072 132.473 22.039 132.371 21.973C132.269 21.901 132.179 21.793 132.101 21.649L131.192 19.975C131.084 19.771 130.955 19.636 130.805 19.57C130.661 19.498 130.475 19.462 130.247 19.462H129.392V21.478C129.392 21.874 129.2 22.072 128.816 22.072ZM129.392 18.607H130.796C131.636 18.607 132.056 18.265 132.056 17.581C132.056 16.903 131.636 16.564 130.796 16.564H129.392V18.607Z" fill="black"/>
<path d="M70.56 41.198C69.132 41.198 67.92 40.928 66.924 40.388C65.94 39.848 65.19 39.092 64.674 38.12C64.158 37.148 63.9 36.008 63.9 34.7C63.9 33.356 64.164 32.192 64.692 31.208C65.232 30.224 66.006 29.462 67.014 28.922C68.022 28.382 69.234 28.112 70.65 28.112C71.298 28.112 71.946 28.184 72.594 28.328C73.242 28.472 73.866 28.712 74.466 29.048C74.79 29.228 74.982 29.468 75.042 29.768C75.114 30.068 75.084 30.362 74.952 30.65C74.82 30.926 74.616 31.13 74.34 31.262C74.076 31.382 73.758 31.352 73.386 31.172C72.582 30.752 71.676 30.542 70.668 30.542C69.384 30.542 68.418 30.902 67.77 31.622C67.134 32.33 66.816 33.356 66.816 34.7C66.816 36.056 67.14 37.082 67.788 37.778C68.448 38.474 69.42 38.822 70.704 38.822C71.388 38.822 72.108 38.714 72.864 38.498V36.014H71.244C70.5 36.014 70.128 35.678 70.128 35.006C70.128 34.334 70.5 33.998 71.244 33.998H74.07C74.802 33.998 75.168 34.37 75.168 35.114V39.29C75.168 39.602 75.102 39.866 74.97 40.082C74.85 40.298 74.652 40.454 74.376 40.55C73.836 40.742 73.23 40.898 72.558 41.018C71.886 41.138 71.22 41.198 70.56 41.198ZM80.3914 30.542C79.8874 30.542 79.4974 30.428 79.2214 30.2C78.9574 29.96 78.8254 29.624 78.8254 29.192C78.8254 28.748 78.9574 28.412 79.2214 28.184C79.4974 27.944 79.8874 27.824 80.3914 27.824C81.4234 27.824 81.9394 28.28 81.9394 29.192C81.9394 30.092 81.4234 30.542 80.3914 30.542ZM80.3914 41.144C79.9474 41.144 79.6054 41.018 79.3654 40.766C79.1374 40.502 79.0234 40.136 79.0234 39.668V33.512C79.0234 32.516 79.4794 32.018 80.3914 32.018C80.8234 32.018 81.1534 32.15 81.3814 32.414C81.6214 32.666 81.7414 33.032 81.7414 33.512V39.668C81.7414 40.136 81.6274 40.502 81.3994 40.766C81.1714 41.018 80.8354 41.144 80.3914 41.144ZM89.7978 41.198C87.3138 41.198 86.0718 39.992 86.0718 37.58V34.196H85.3158C84.6078 34.196 84.2538 33.86 84.2538 33.188C84.2538 32.504 84.6078 32.162 85.3158 32.162H86.0718V30.794C86.0718 29.87 86.5278 29.408 87.4398 29.408C88.3398 29.408 88.7898 29.87 88.7898 30.794V32.162H90.4998C91.1958 32.162 91.5438 32.504 91.5438 33.188C91.5438 33.86 91.1958 34.196 90.4998 34.196H88.7898V37.472C88.7898 37.976 88.9038 38.354 89.1318 38.606C89.3718 38.858 89.7498 38.984 90.2658 38.984C90.4458 38.984 90.6138 38.966 90.7698 38.93C90.9258 38.894 91.0698 38.87 91.2018 38.858C91.3698 38.846 91.5078 38.9 91.6158 39.02C91.7238 39.14 91.7778 39.386 91.7778 39.758C91.7778 40.058 91.7298 40.316 91.6338 40.532C91.5378 40.736 91.3698 40.886 91.1298 40.982C90.9738 41.042 90.7578 41.09 90.4818 41.126C90.2178 41.174 89.9898 41.198 89.7978 41.198ZM95.9951 41.162C95.5391 41.162 95.1911 41.036 94.9511 40.784C94.7111 40.532 94.5911 40.178 94.5911 39.722V29.588C94.5911 28.628 95.0591 28.148 95.9951 28.148C96.9191 28.148 97.3811 28.628 97.3811 29.588V33.404H103.285V29.588C103.285 28.628 103.747 28.148 104.671 28.148C105.607 28.148 106.075 28.628 106.075 29.588V39.722C106.075 40.178 105.955 40.532 105.715 40.784C105.475 41.036 105.127 41.162 104.671 41.162C104.227 41.162 103.885 41.036 103.645 40.784C103.405 40.532 103.285 40.178 103.285 39.722V35.726H97.3811V39.722C97.3811 40.682 96.9191 41.162 95.9951 41.162ZM113.28 41.198C112.152 41.198 111.318 40.886 110.778 40.262C110.25 39.638 109.986 38.702 109.986 37.454V33.386C109.986 32.474 110.436 32.018 111.336 32.018C112.248 32.018 112.704 32.474 112.704 33.386V37.526C112.704 38.57 113.154 39.092 114.054 39.092C114.57 39.092 114.99 38.912 115.314 38.552C115.65 38.18 115.818 37.694 115.818 37.094V33.386C115.818 32.474 116.268 32.018 117.168 32.018C118.08 32.018 118.536 32.474 118.536 33.386V39.776C118.536 40.7 118.098 41.162 117.222 41.162C116.79 41.162 116.46 41.042 116.232 40.802C116.004 40.562 115.89 40.226 115.89 39.794C115.302 40.73 114.432 41.198 113.28 41.198ZM127.713 41.198C127.101 41.198 126.549 41.066 126.057 40.802C125.565 40.538 125.193 40.178 124.941 39.722V39.776C124.941 40.7 124.497 41.162 123.609 41.162C122.709 41.162 122.259 40.7 122.259 39.776V29.534C122.259 28.61 122.715 28.148 123.627 28.148C124.527 28.148 124.977 28.61 124.977 29.534V33.35C125.241 32.93 125.613 32.6 126.093 32.36C126.585 32.108 127.125 31.982 127.713 31.982C128.481 31.982 129.153 32.168 129.729 32.54C130.317 32.912 130.773 33.44 131.097 34.124C131.421 34.808 131.583 35.624 131.583 36.572C131.583 37.52 131.421 38.342 131.097 39.038C130.773 39.722 130.317 40.256 129.729 40.64C129.153 41.012 128.481 41.198 127.713 41.198ZM126.903 39.164C127.479 39.164 127.947 38.954 128.307 38.534C128.667 38.114 128.847 37.46 128.847 36.572C128.847 35.696 128.667 35.054 128.307 34.646C127.947 34.226 127.479 34.016 126.903 34.016C126.315 34.016 125.841 34.226 125.481 34.646C125.121 35.054 124.941 35.696 124.941 36.572C124.941 37.46 125.121 38.114 125.481 38.534C125.841 38.954 126.315 39.164 126.903 39.164Z" fill="black"/>
</svg>

<svg xmlns="http://www.w3.org/2000/svg" width="156" height="55" fill="none" xmlns:v="https://vecta.io/nano"><path d="M149.124 1H6.876C3.631 1 1 5.253 1 10.5v34C1 49.747 3.631 54 6.876 54h142.249c3.245 0 5.876-4.253 5.876-9.5v-34c0-5.247-2.631-9.5-5.876-9.5z" fill="#fffffc" stroke="#000"/><g fill="#000"><path fill-rule="evenodd" d="M32 12a16 16 0 0 0-16 16c0 7.08 4.58 13.06 10.94 15.18.8.14 1.1-.34 1.1-.76l-.02-2.98c-4.02.74-5.06-.98-5.38-1.88-.18-.46-.96-1.88-1.64-2.26-.56-.3-1.36-1.04-.02-1.06 1.26-.02 2.16 1.16 2.46 1.64 1.44 2.42 3.74 1.74 4.66 1.32.14-1.04.56-1.74 1.02-2.14-3.56-.4-7.28-1.78-7.28-7.9 0-1.74.62-3.18 1.64-4.3-.16-.4-.72-2.04.16-4.24 0 0 1.34-.42 4.4 1.64 1.28-.36 2.64-.54 4-.54s2.72.18 4 .54c3.06-2.08 4.4-1.64 4.4-1.64.88 2.2.32 3.84.16 4.24 1.02 1.12 1.64 2.54 1.64 4.3 0 6.14-3.74 7.5-7.3 7.9.58.5 1.08 1.46 1.08 2.96l-.02 4.4c0 .42.3.92 1.1.76a16.03 16.03 0 0 0 7.892-5.837C46.947 34.62 47.999 31.352 48 28a16 16 0 0 0-16-16z"/><path d="M64.305 22c-.408 0-.612-.204-.612-.612v-5.121c0-.408.204-.612.612-.612h2.16c.666 0 1.182.147 1.548.441.366.288.549.69.549 1.206 0 .342-.087.636-.261.882s-.414.426-.72.54c.36.102.639.282.837.54.204.252.306.573.306.963 0 .564-.192 1.002-.576 1.314-.378.306-.906.459-1.584.459h-2.259zm.495-3.654h1.467c.786 0 1.179-.303 1.179-.909s-.393-.909-1.179-.909H64.8v1.818zm0 2.781h1.62c.792 0 1.188-.318 1.188-.954s-.396-.954-1.188-.954H64.8v1.908zm5.665.945c-.384 0-.576-.198-.576-.594v-5.301c0-.396.192-.594.576-.594s.576.198.576.594v5.301c0 .396-.192.594-.576.594zm0-7.173c-.39 0-.585-.189-.585-.567 0-.372.195-.558.585-.558s.585.186.585.558c0 .378-.195.567-.585.567zM72.69 22c-.198 0-.348-.051-.45-.153-.096-.108-.138-.246-.126-.414.018-.168.093-.342.225-.522l3.168-4.293H72.6c-.342 0-.513-.162-.513-.486 0-.318.171-.477.513-.477h3.726c.198 0 .345.054.441.162.102.102.147.237.135.405-.012.162-.087.336-.225.522l-3.168 4.293h3.042c.342 0 .513.159.513.477 0 .324-.171.486-.513.486H72.69zm5.8 0c-.408 0-.612-.204-.612-.612v-5.121c0-.408.204-.612.612-.612h3.213c.312 0 .468.15.468.45 0 .312-.156.468-.468.468h-2.718v1.746h2.52c.312 0 .468.153.468.459s-.156.459-.468.459h-2.52v1.845h2.718c.312 0 .468.153.468.459s-.156.459-.468.459H78.49zm9.29.072c-.384 0-.576-.201-.576-.603v-2.385l-1.926-2.709c-.078-.108-.114-.222-.108-.342a.48.48 0 0 1 .153-.315c.09-.09.216-.135.378-.135.234 0 .438.123.612.369l1.485 2.106 1.494-2.106c.096-.132.189-.225.279-.279.09-.06.201-.09.333-.09.234 0 .387.087.459.261.078.168.048.348-.09.54l-1.917 2.709v2.376c0 .402-.192.603-.576.603zm4.368 0c-.384 0-.576-.198-.576-.594v-5.301c0-.396.192-.594.576-.594s.576.198.576.594v5.301c0 .396-.192.594-.576.594zM94.697 22c-.39 0-.585-.198-.585-.594v-5.193c0-.39.192-.585.576-.585s.576.195.576.585v4.806h2.61c.336 0 .504.162.504.486 0 .33-.168.495-.504.495h-3.177zm5.081 0c-.408 0-.612-.204-.612-.612v-5.121c0-.408.204-.612.612-.612h1.746c1.062 0 1.881.273 2.457.819.582.546.873 1.329.873 2.349 0 1.014-.291 1.797-.873 2.349-.576.552-1.395.828-2.457.828h-1.746zm.54-.954h1.134c1.464 0 2.196-.741 2.196-2.223 0-1.476-.732-2.214-2.196-2.214h-1.134v4.437zm6.279 1.026c-.384 0-.576-.198-.576-.594v-5.301c0-.396.192-.594.576-.594s.576.198.576.594v5.301c0 .396-.192.594-.576.594zm2.225-.072c-.198 0-.348-.051-.45-.153-.096-.108-.138-.246-.126-.414.018-.168.093-.342.225-.522l3.168-4.293h-2.907c-.342 0-.513-.162-.513-.486 0-.318.171-.477.513-.477h3.726c.198 0 .345.054.441.162.102.102.147.237.135.405-.012.162-.087.336-.225.522l-3.168 4.293h3.042c.342 0 .513.159.513.477 0 .324-.171.486-.513.486h-3.861zm10.152.072c-.306 0-.525-.15-.657-.45l-2.349-5.274c-.096-.228-.093-.411.009-.549.108-.144.264-.216.468-.216.174 0 .303.039.387.117.09.072.165.183.225.333l1.935 4.491 1.935-4.5a.87.87 0 0 1 .234-.324c.09-.078.216-.117.378-.117.192 0 .336.072.432.216.102.144.102.327 0 .549l-2.349 5.274a.85.85 0 0 1-.252.342c-.096.072-.228.108-.396.108zm4.508-.072c-.408 0-.612-.204-.612-.612v-5.121c0-.408.204-.612.612-.612h3.213c.312 0 .468.15.468.45 0 .312-.156.468-.468.468h-2.718v1.746h2.52c.312 0 .468.153.468.459s-.156.459-.468.459h-2.52v1.845h2.718c.312 0 .468.153.468.459s-.156.459-.468.459h-3.213zm5.334.072c-.384 0-.576-.198-.576-.594V16.24c0-.39.195-.585.585-.585h2.169c.696 0 1.233.168 1.611.504.378.33.567.795.567 1.395 0 .474-.123.867-.369 1.179-.246.306-.6.513-1.062.621.306.096.558.327.756.693l.675 1.251c.102.192.12.369.054.531-.06.162-.213.243-.459.243-.162 0-.294-.033-.396-.099-.102-.072-.192-.18-.27-.324l-.909-1.674c-.108-.204-.237-.339-.387-.405-.144-.072-.33-.108-.558-.108h-.855v2.016c0 .396-.192.594-.576.594zm.576-3.465h1.404c.84 0 1.26-.342 1.26-1.026 0-.678-.42-1.017-1.26-1.017h-1.404v2.043zM70.56 41.198c-1.428 0-2.64-.27-3.636-.81-.984-.54-1.734-1.296-2.25-2.268s-.774-2.112-.774-3.42c0-1.344.264-2.508.792-3.492a5.61 5.61 0 0 1 2.322-2.286c1.008-.54 2.22-.81 3.636-.81.648 0 1.296.072 1.944.216s1.272.384 1.872.72c.324.18.516.42.576.72a1.32 1.32 0 0 1-.09.882c-.132.276-.336.48-.612.612-.264.12-.582.09-.954-.09-.804-.42-1.71-.63-2.718-.63-1.284 0-2.25.36-2.898 1.08-.636.708-.954 1.734-.954 3.078 0 1.356.324 2.382.972 3.078.66.696 1.632 1.044 2.916 1.044.684 0 1.404-.108 2.16-.324v-2.484h-1.62c-.744 0-1.116-.336-1.116-1.008s.372-1.008 1.116-1.008h2.826c.732 0 1.098.372 1.098 1.116v4.176c0 .312-.066.576-.198.792-.12.216-.318.372-.594.468-.54.192-1.146.348-1.818.468s-1.338.18-1.998.18zm9.831-10.656c-.504 0-.894-.114-1.17-.342-.264-.24-.396-.576-.396-1.008 0-.444.132-.78.396-1.008.276-.24.666-.36 1.17-.36 1.032 0 1.548.456 1.548 1.368 0 .9-.516 1.35-1.548 1.35zm0 10.602c-.444 0-.786-.126-1.026-.378-.228-.264-.342-.63-.342-1.098v-6.156c0-.996.456-1.494 1.368-1.494.432 0 .762.132.99.396.24.252.36.618.36 1.098v6.156c0 .468-.114.834-.342 1.098-.228.252-.564.378-1.008.378zm9.406.054c-2.484 0-3.726-1.206-3.726-3.618v-3.384h-.756c-.708 0-1.062-.336-1.062-1.008 0-.684.354-1.026 1.062-1.026h.756v-1.368c0-.924.456-1.386 1.368-1.386.9 0 1.35.462 1.35 1.386v1.368h1.71c.696 0 1.044.342 1.044 1.026 0 .672-.348 1.008-1.044 1.008h-1.71v3.276c0 .504.114.882.342 1.134.24.252.618.378 1.134.378a2.24 2.24 0 0 0 .504-.054c.156-.036.3-.06.432-.072a.48.48 0 0 1 .414.162c.108.12.162.366.162.738 0 .3-.048.558-.144.774-.096.204-.264.354-.504.45-.156.06-.372.108-.648.144-.264.048-.492.072-.684.072zm6.197-.036c-.456 0-.804-.126-1.044-.378s-.36-.606-.36-1.062V29.588c0-.96.468-1.44 1.404-1.44.924 0 1.386.48 1.386 1.44v3.816h5.904v-3.816c0-.96.462-1.44 1.386-1.44.936 0 1.404.48 1.404 1.44v10.134c0 .456-.12.81-.36 1.062s-.588.378-1.044.378c-.444 0-.786-.126-1.026-.378s-.36-.606-.36-1.062v-3.996H97.38v3.996c0 .96-.462 1.44-1.386 1.44zm17.285.036c-1.128 0-1.962-.312-2.502-.936-.528-.624-.792-1.56-.792-2.808v-4.068c0-.912.45-1.368 1.35-1.368.912 0 1.368.456 1.368 1.368v4.14c0 1.044.45 1.566 1.35 1.566.516 0 .936-.18 1.26-.54.336-.372.504-.858.504-1.458v-3.708c0-.912.45-1.368 1.35-1.368.912 0 1.368.456 1.368 1.368v6.39c0 .924-.438 1.386-1.314 1.386-.432 0-.762-.12-.99-.36s-.342-.576-.342-1.008c-.588.936-1.458 1.404-2.61 1.404zm14.433 0c-.612 0-1.164-.132-1.656-.396s-.864-.624-1.116-1.08v.054c0 .924-.444 1.386-1.332 1.386-.9 0-1.35-.462-1.35-1.386V29.534c0-.924.456-1.386 1.368-1.386.9 0 1.35.462 1.35 1.386v3.816a2.72 2.72 0 0 1 1.116-.99 3.5 3.5 0 0 1 1.62-.378c.768 0 1.44.186 2.016.558.588.372 1.044.9 1.368 1.584s.486 1.5.486 2.448-.162 1.77-.486 2.466c-.324.684-.78 1.218-1.368 1.602-.576.372-1.248.558-2.016.558zm-.81-2.034a1.76 1.76 0 0 0 1.404-.63c.36-.42.54-1.074.54-1.962 0-.876-.18-1.518-.54-1.926a1.76 1.76 0 0 0-1.404-.63c-.588 0-1.062.21-1.422.63-.36.408-.54 1.05-.54 1.926 0 .888.18 1.542.54 1.962s.834.63 1.422.63z"/></g></svg>
